X:1
T:Redal, 88.88.88
T:Redal, 88.88.88
T:William Batchelder Bradbury (1816-1868)
T:Public Domain Courtesy of the Cyber Hymnal™
C:William Batchelder Bradbury (1816-1868)
Z:Public Domain
Z:Courtesy of the Cyber Hymnal™
%%score ( 1 2 ) ( 3 4 )
L:1/8
Q:1/4=130
M:3/2
K:C
V:1 treble 
V:2 treble 
V:3 bass 
V:4 bass 
V:1
 C2 E2 F2 | G6 G2 [FA]2 [FB]2 | [Ec]6 [Ec]2 [Ec]2 [Ec]2 | [DB]6 [GB]2 [Ac]2 [^FA]2 | %4
 [GB]6 [^Fd]2 [Fd]2 [Fc]2 | [GB]2 [EA]2 [DG]4 [D^F]4 | [DG]6 G2 G2 G2 | [Gc]6 [Ec]2 [Fd]2 [DB]2 | %8
 [Ec]6 [EG]2 [EG]2 [EG]2 | [FA]6 [Ac]2 [GB]2 [FA]2 | [EG]6 G2 [Gc]2 [Gd]2 | %11
 [Ge]2 [Gc]2 [Fd]4 [DB]4 | [Ec]6 x6 |] x6 |] %14
V:2
 C2 E2 F2 | G6 G2 x4 | x12 | x12 | x12 | x12 | x6 G2 G2 G2 | x12 | x12 | x12 | x6 G2 x4 | x12 | %12
 x12 |] x6 |] %14
V:3
 C,2 E,2 F,2 | G,6 [E,C]2 [F,C]2 [D,G,]2 | [C,G,]6 [C,G,]2 [C,G,]2 [C,G,]2 | %3
 [D,G,]6 [D,G,]2 [D,^F,]2 [D,A,]2 | G,6 [D,A,]2 [D,A,]2 [D,A,]2 | G,2 [C,C]2 [D,B,]4 [D,A,]4 | %6
 [G,B,]6 G,2 x4 | G,2 G,2 x8 | [E,G,]6 [C,G,]2 G,2 G,2 | [C,G,]6 [C,C]2 [C,C]2 [C,C]2 | %10
 [F,C]6 [F,C]2 [F,C]2 [F,C]2 | [C,C]6 G,2 [E,G,]2 [G,B,]2 | [C,C]2 [E,C]2 [F,A,]4 G,4 |] [C,G,]6 |] %14
V:4
 C,2 E,2 F,2 | G,6 x6 | x12 | x12 | G,6 x6 | G,2 x10 | x6 G,2 x4 | G,2 G,2 x8 | x8 G,2 G,2 | x12 | %10
 x12 | x6 G,2 x4 | x8 G,4 |] x6 |] %14

